X:1
T:The House upon a Rock
T:The House upon a Rock
T:William Batchelder Bradbury
T:Frances Jane (Fanny) Crosby, 1864
T:Public Domain Courtesy of the Cyber Hymnal™
T:Public Domain Courtesy of the Cyber Hymnal™
C:William Batchelder Bradbury
Z:Public Domain
Z:Courtesy of the Cyber Hymnal™
%%score ( 1 2 ) ( 3 4 )
L:1/8
Q:1/4=110
M:4/4
K:A
V:1 treble 
V:2 treble 
V:3 bass 
V:4 bass 
V:1
 E2 | [CA]2 [CA]2 [CA]2 [CA]2 | [EA][EG][EA][EB] [Ec]2 [Ec]2 | [Ae]2 [Ge][Ge] [Ae]2 [Ec]2 | %4
w: 1.~Oh,|if my house is|built up- on a rock, I|know it will stand for-|
w: 2.~For|He whose word is|last- ing as the hills, Whose|truth is un- chang- ing|
w: 3.~Oh,|if my house is|built up- on the sand, ’Twill|fall when the floods are|
w: 4.~Then|let my house be|built up- on a rock, For|there it will stand for-|
 [Ec]2 [EB]2 z2 [Ec]2 | [Fd]2 [Fd]2 [Fd]2 [Fd][Fd] | [Fd][Fd][Fd][Fd] [Fd]2 [Fd]2 | %7
w: ev- er; The|floods may come, And the|roll- ing thun- der’s shock, May|
w: ev- er, Hath|said my house On the|sol- id rock shall stand, He’ll|
w: swell- ing; The|winds will blow, And the|tem- pest will des- cend And|
w: ev- er; The|floods may come, And the|roll- ing thun- der’s shock May|
 [Ec][Ec][Ec][Ec] [Ec]2 [Ec][Ec] | [Ec][Ec][Ec][Ec] [Ec]2 [Ec][Ec] | [EB][EB] [Ec]2 [Fd]4 | %10
w: beat up- on my house That is|found- ed on a rock, But it|ne- ver will fall,|
w: hold it by His might In the|hol- low of His hand, And it|ne- ver will fall,|
w: beat up- on my house That is|built up- on the sand, And sure-|ly it will fall—|
w: beat up- on my house That is|found- ed on a rock, But it|ne- ver will fall,|
 [Fd][Fd] [Ec]2 [EB]4 | [DB]2 [CA]2 [DB]2 [Ec]2 | [DB]2 [CA]2 z4 ||"^Refrain" [EA]4 [EA]2 [Ec]2 | %14
w: nev- er will fall,|Ne- ver, ne- ver,|ne- ver.||
w: ne- ver will fall,|Ne- ver, nev- er,|ne- ver.||
w: ne- ver to rise,|Ne- ver, ne- ver,|ne- ver.||
w: ne- ver will fall,|Ne- ver, ne- ver,|ne- ver.||
 [Ee]6 [Ec]2 | [EB]2 [EB]2 [EB]2 [Ec]2 | [Fd]2 [Fd]2 z2 [Fd]2 | [Ec]2 [Ec]2 ([Fd][Ec]) ([DB][CA]) | %18
w: ||||
w: ||||
w: ||||
w: ||||
 [DB]2 [DB]2 [DB]2 E2 | [DB]2 [DB]2 ([Ec][DB]) ([CA][DG]) | [CA]2 [EB]2 [Ec]2 [Fd][Fd] | %21
w: |||
w: |||
w: |||
w: |||
 [Ge]2 [Ge]2 d2 [Ec]2 | [Ec]4 [EB]2 E2 | [EA]2 [EB]2 [Ec]2 [FA]2 | [GB]4 A2 |] %25
w: ||||
w: ||||
w: ||||
w: ||||
V:2
 E2 | x8 | x8 | x8 | x8 | x8 | x8 | x8 | x8 | x8 | x8 | x8 | x8 || x8 | x8 | x8 | x8 | x8 | x6 E2 | %19
 x8 | x8 | x4 (FE) x2 | x6 E2 | x8 | x4 A2 |] %25
V:3
 E,2 | A,2 [E,A,]2 [C,A,]2 [A,,A,]2 | [A,C][E,B,][C,A,][E,G,] A,2 A,2 | %3
w: ~|~ ~ ~ ~|~ ~ ~ ~ ~ ~|
 [A,C]2 [E,B,][E,B,] [C,A,]2 [A,,A,]2 | [E,A,]2 [E,G,]2 z2 A,2 | %5
w: ~ ~ ~ ~ ~|~ ~ ~|
 [D,A,]2 [D,A,]2 [D,A,]2 [D,A,][D,A,] | [D,A,][D,A,][D,A,][D,A,] [D,A,]2 [D,A,]2 | %7
w: ~ ~ ~ ~ ~|~ ~ ~ ~ ~ ~|
 A,A,A,A, A,2 A,A, | A,A,A,A, A,2 A,A, | [E,G,][E,G,] A,2 [D,A,]4 | [D,A,][D,A,] [A,,A,]2 [E,G,]4 | %11
w: ~ ~ ~ ~ ~ ~ ~|~ ~ ~ ~ ~ ~ ~|~ ~ ~ ~|~ ~ ~ ~|
 [E,G,]2 [E,A,]2 [E,G,]2 [E,G,]2 | [A,,E,]2 [A,,E,]2 z4 || [A,C]4 [A,C]2 [A,C]2 | C6 A,2 | %15
w: ~ ~ ~ ~|~ ~|My rock is|firm, it|
 [E,G,]2 [E,G,]2 [E,G,]2 A,2 | [D,A,]2 [D,A,]2 z2 [D,A,]2 | [A,,A,]2 [A,,A,]2 [A,,A,]2 [A,,A,]2 | %18
w: is my sure foun-|da- tion, ’Tis|Je- sus Christ, my|
 [E,G,]2 [E,G,]2 [E,G,]2 [E,G,]2 | [E,G,]2 [E,G,]2 (A,G,) (A,B,) | %20
w: lov- ing Sav- ior,|Je- sus Christ, * my *|
 [A,C]2 [G,B,]2 A,2 [F,A,][F,A,] | [E,B,]2 [E,B,]2 ([F,A,][G,B,]) A,2 | [E,A,]4 [E,G,]2 E,2 | %23
w: lov- ing Sav- ior, The|rock of my * sal-|va- tion, The|
 [C,A,]2 [E,G,]2 A,2 [F,C]2 | [E,D]4 [A,,C]2 |] %25
w: rock of my sal-|va- tion.|
V:4
 E,2 | A,2 x6 | x4 A,2 A,2 | x8 | x6 A,2 | x8 | x8 | A,A,A,A, A,2 A,A, | A,A,A,A, A,2 A,A, | %9
 x2 A,2 x4 | x8 | x8 | x8 || x8 | (A,2 A,2 A,2) A,2 | x6 A,2 | x8 | x8 | x8 | x4 E,2 E,2 | %20
 x4 A,2 x2 | x6 A,2 | x6 E,2 | x4 A,2 x2 | x6 |] %25

